X:134
T: Drei Mrder (2-36) S. 114
N: P0909
O: Lothringen
S: PINCK, Louis: Verklingende Weisen, Bd 2, Metz 1928]
R: Vergewaltigung, Mord]
M: 4/4
L: 1/8
K: G
D | G3DG2A2 | B2BAG4 |
B3dd3c | B4A3
D | G3DG2A2 | B2BAG4 |
G2Bcd4 | d2e2d4 |
A2c2B2AA | B2A2G4 |
G2Bcd4 | d2e2d4 |
A2c2B2AA | B2A2G4

@@@ Tune index: 7684
